X: 26
T: PRINCE RUPERT'S MARCH
B: "FIFTY OLD ENGLISH FOLK DANCE AIRS", Edgar H. Hunt ed., Schott & Co. Ltd. pub., London 1939
Z: 2004-2014 John Chambers <jc:trillian.mit.edu>
M: 2/2
L: 1/4
K: Ddor
A |\
dA de | (f>g) ff |\
ed (d^c) | d3 :|\
|: d |\
(e>d) (e/f/)g | (c>d) cc |
ff (g/a/)(g/a/) | f3 f |\
(e>d) (e/f/)g | (c>d) cf |\
ed (d^c) | d3 :|

%%sep 1 1 500
%%sep 1 1 500
